X:1
T:Jesus Loves Me
T:Jesus Loves Me
T:William Batchelder Bradbury, 1862
T:Anna Warner, 1860
T:Public Domain Courtesy of the Cyber Hymnal™
C:William Batchelder Bradbury, 1862
Z:Public Domain
Z:Courtesy of the Cyber Hymnal™
%%score ( 1 2 ) 3
L:1/8
Q:1/4=115
M:4/4
K:C
V:1 treble 
V:2 treble 
V:3 bass 
V:1
 [EG]2 [CE]2 [CE]2 [B,D]2 | [CE]2 [EG]2 [EG]4 | [FA]2 [FA]2 [Ac]2 [FA]2 | [FA]2 [EG]2 [EG]4 | %4
w: 1.~Je- sus loves me!|This I know,|For the Bi- ble|tells me so.|
w: 2.~Je- sus loves me—|He who died|Hea- ven’s gate to|o- pen wide;|
w: 3.~Je- sus loves me—|loves me still,|Though I’m ve- ry|weak and ill;|
w: 4.~Je- sus loves me—|He will stay|Close be- side me|all the way,|
 [EG]2 [CE]2 [CE]2 [B,D]2 | [CE]2 [EG]2 [EG]4 | [FA]2 [FA]2 [EG]2 C2 | [CE]2 [B,D]2 C4 || %8
w: Lit- tle ones to|Him be- long;|They are weak, but|He is strong.|
w: He will wash a-|way my sin,|Let His lit- tle|child come in.|
w: From His shin- ing|throne on high|Comes to watch me|where I lie.|
w: Then His lit- tle|child will take|Up to Heaven for|His dear sake.|
"^Refrain" [EG]4 [CE]2 [EG]2 | [FA]2 [Fc]6 | [EG]4 [CE]2 C2 | [CE]2 [B,D]6 | [CG]4 [CE]2 [EG]2 | %13
w: |||||
w: |||||
w: Yes, Je- sus|loves me!|Yes, Je- sus|loves me!|Yes, Je- sus|
w: |||||
 [FA]2 [Fc]4 [CA]2 | [CG]2 C2 [CE]2 [B,D]2 | C8 |] %16
w: |||
w: |||
w: loves me! The|Bi- ble tells me|so.|
w: |||
V:2
 x8 | x8 | x8 | x8 | x8 | x8 | x8 | x8 || x8 | x8 | x8 | x8 | x8 | x8 | x8 | C8 |] %16
V:3
 [C,G,]2 [C,G,]2 [C,G,]2 [G,,G,]2 | [C,G,]2 [C,C]2 [C,C]4 | [F,C]2 [F,C]2 [F,C]2 [F,C]2 | %3
 [C,C]2 [C,C]2 [C,C]4 | [C,C]2 [C,G,]2 [C,G,]2 [G,,G,]2 | [C,G,]2 [C,C]2 [C,C]4 | %6
 [F,C]2 [F,C]2 [C,C]2 [E,G,]2 | G,2 [G,,F,]2 [C,E,]4 || [C,G,]4 [C,G,]2 [C,C]2 | [F,C]2 [F,A,]6 | %10
 [C,C]4 [C,G,]2 [E,G,]2 | G,2 G,6 | [C,E,]4 [C,G,]2 [C,C]2 | [F,C]2 [F,A,]4 [F,,F,]2 | %14
 [G,,E,]2 [A,,E,]2 [G,,G,]2 [G,,F,]2 | [C,E,]8 |] %16

